X: 4251
T: McDOUGALL'S MARCH
%R: march, jig
B: James Kerr "Merry Melodies" v.4 p.27 #251
Z: 2016 John Chambers <jc:trillian.mit.edu>
M: 6/8
L: 1/8
K: D
|:\
ABA AFA | d3 d3  | fed def | efe dcB |\
ABA AFA | d3 d2g | fed Adc | d3- d2A :|
|:\
fgf fed | g3 g3  | fgf fed | efe dcB |\
ABA AFA | d3 d2g | fed Adc | d3- d2A :|

%%sep 1 1 500
%%sep 1 1 500

